X: 33240
T: Pull The Knife And Stick It Again
R: jig
M: 6/8
K: Eminor
~E3 GFE|DBE DBD|~E3 GFE|BcA BAG|
~E3 GFE|DBE DEF|GFE FED|BED E3:|
~E3 GFE|DB,E DB,D|~E3 GFE|BcA BAG|
~E3 GFE|DB,E DEF|GFE FED|B,ED E3:|

